X:1
T:Bezaleel, 11.11.11.11
T:Bezaleel, 11.11.11.11
T:John Bunyan Herbert, 1914
T:Public Domain Courtesy of the Cyber Hymnal™
C:John Bunyan Herbert, 1914
Z:Public Domain
Z:Courtesy of the Cyber Hymnal™
%%score 1 ( 2 3 ) ( 4 5 )
L:1/8
Q:1/4=110
M:3/4
K:F
V:1 treble 
V:2 treble 
V:3 treble 
V:4 bass 
V:5 bass 
V:1
 F2 | F2 E2 G2 | G2 F2 A2 | G2 F2 D2 | C4 A2 | c2 d2 c2 | A2 F2 C2 | D2 F2 G2 | F4 F2 | E2 G2 C2 | %10
 F2 A2 F2 | E2 G2 C2 | F4 A2 | c2 d2 c2 | A2 F2 C2 | D2 F2 G2 | F6 |] %17
V:2
 [CF]2 | F2 E2 [CG]2 | G2 F2 [CFA]2 | [DG]2 [DF]2 [B,D]2 | [A,C]4 [FA]2 | [Ac]2 [Bd]2 [Ac]2 | %6
 [CFA]2 [A,CF]2 C2 | D2 F2 [B,G]2 | [A,F]4 F2 | E2 G2 C2 | F2 A2 F2 | E2 G2 C2 | F4 [FA]2 | %13
 [Ac]2 [Bd]2 [Ac]2 | [CFA]2 [A,CF]2 C2 | D2 F2 [B,G]2 | [A,F]6 |] %17
V:3
 x2 | C4 x2 | C4 x2 | x6 | x6 | F6 | x6 | B,4 x2 | x6 | x6 | x6 | x6 | x6 | F6 | x6 | B,4 x2 | %16
 x6 |] %17
V:4
 [F,A,]2 | A,2 G,2 [C,B,]2 | B,2 A,2 F,2 | [B,,B,]4 [D,F,]2 | F,4 z2 | F,6 | [F,,F,]4 [A,,F,]2 | %7
 F,4 [C,E,]2 | [F,,F,]4 [F,A,]2 | [C,G,B,]6 | [C,F,A,]6 | [C,G,B,]6 | [F,A,]4 z2 | F,6 | %14
 [F,,F,]4 [A,,F,]2 | F,4 [C,E,]2 | [F,,F,]6 |] %17
V:5
 x2 | C,4 x2 | F,4 F,2 | x6 | x6 | x6 | x6 | B,,2 D,2 x2 | x6 | x6 | x6 | x6 | x6 | x6 | x6 | %15
 B,,2 D,2 x2 | x6 |] %17

